svg/OSM-icons/shop #ac39ac °ffffff !label=enshops,deLäden/29102;shop=mall;!name=;[shop];!label=enmaill,deEinkaufs- zentrum.svg

<svg xmlns="http://www.w3.org/2000/svg" viewBox="0 0 580 580" enable-background="new 0 0 580 580"><path fill="#111" stroke="#eee" stroke-width="3.408" d="m66.28 1.768c-41.34 0-64.57 21.371-64.57 65.04v450.12c0 40.844 20.895 62.23 62.19 62.23h452.02c41.31 0 62.23-20.315 62.23-62.23v-450.12c0-42.602-20.923-65.04-63.52-65.04-.003 0-448.5-.143-448.35 0z"/><path fill="#fff" d="m520.1 282.57c-5.52-21.831-25.287-37.986-48.834-37.986h-4.955c-23.546 0-43.31 16.16-48.833 37.986h-1.54v-61.935-3.303-8.752h-.317c-4.485-62.957-56.976-112.64-121.07-112.64h-9.08c-64.1 0-116.59 49.683-121.07 112.64h-.316v8.752 3.303 61.935h-1.539c-5.521-21.831-25.289-37.986-48.835-37.986h-4.955c-23.545 0-43.31 16.16-48.834 37.986h-1.539v12.388 94.14 94.97h105.7 251.87 105.7v-94.97-94.14-12.388h-1.54m-368.08 79.02h-79.18v-34.933h79.18v34.933zm80.34-215.56c13.605-10.312 30.23-16.83 48.32-18.01v89.32h-48.32v-71.31m-6.986 5.882v65.42h-28.696c.122-25.839 11.147-49.09 28.696-65.42m59.14 323.79h-76.44v-149.04h76.44v149.04m3.16-347.9h5.695c15.425 0 29.94 3.886 42.628 10.727v78.81h-48.32v-89.54m84.25 347.9h-76.44v-149.04h76.44v149.04m-28.944-258.37v-74.61c24.19 16.03 40.19 43.44 40.34 74.61h-40.34m165.39 144.25h-79.18v-34.933h79.18v34.933"/></svg>

<?xml version="1.0" encoding="utf-8"?>
<!-- Generator: Adobe Illustrator 15.0.0, SVG Export Plug-In . SVG Version: 6.00 Build 0)  -->
<!DOCTYPE svg PUBLIC "-//W3C//DTD SVG 1.1//EN" "http://www.w3.org/Graphics/SVG/1.1/DTD/svg11.dtd">
<svg version="1.1" xmlns="http://www.w3.org/2000/svg" xmlns:xlink="http://www.w3.org/1999/xlink" x="0px" y="0px" width="580px"
	 height="580px" viewBox="0 0 580 580" enable-background="new 0 0 580 580" xml:space="preserve">
<g id="Layer_1">
	<g id="Layer_2">
		<g id="g1327">
			<path id="path1329" fill="#111111" stroke="#EEEEEE" stroke-width="3.408" d="M66.275,1.768
				c-41.335,0-64.571,21.371-64.571,65.036v450.123c0,40.844,20.895,62.229,62.192,62.229h452.024
				c41.307,0,62.229-20.315,62.229-62.229V66.804c0-42.602-20.923-65.036-63.521-65.036C514.625,1.768,66.133,1.625,66.275,1.768z"
				/>
		</g>
	</g>
</g>
<g id="Layer_2_1_">
	<path fill="#FFFFFF" d="M520.095,282.567c-5.52-21.831-25.287-37.986-48.834-37.986h-4.955c-23.546,0-43.313,16.156-48.833,37.986
		h-1.54v-61.935v-3.303v-8.752h-0.317c-4.485-62.957-56.976-112.64-121.074-112.64h-9.083c-64.1,0-116.59,49.683-121.075,112.64
		h-0.316v8.752v3.303v61.935h-1.539c-5.521-21.831-25.289-37.986-48.835-37.986h-4.955c-23.545,0-43.313,16.156-48.834,37.986
		h-1.539v12.388v94.14v94.967h105.702h251.866h105.701v-94.967v-94.14v-12.388H520.095z M152.018,361.585H72.84v-34.933h79.179
		V361.585z M232.362,146.023c13.605-10.312,30.232-16.83,48.322-18.012v89.319h-48.322V146.023z M225.376,151.905v65.425H196.68
		C196.802,191.491,207.827,168.24,225.376,151.905z M284.511,475.695h-76.436V326.652h76.436V475.695z M287.671,127.793h5.695
		c15.425,0,29.94,3.886,42.628,10.727v78.81h-48.323V127.793z M371.924,475.695h-76.437V326.652h76.437V475.695z M342.98,217.33
		v-74.612c24.195,16.033,40.194,43.445,40.34,74.612H342.98z M508.374,361.585h-79.179v-34.933h79.179V361.585z"/>
</g>
</svg>
